src/assets/views.svg

<svg width="95" height="18" viewBox="0 0 95 18" fill="none" xmlns="http://www.w3.org/2000/svg">
<path fill-rule="evenodd" clip-rule="evenodd" d="M0.75 9C2.0475 5.7075 5.25 3.375 9 3.375C12.75 3.375 15.9525 5.7075 17.25 9C15.9525 12.2925 12.75 14.625 9 14.625C5.25 14.625 2.0475 12.2925 0.75 9ZM15.615 9C14.3775 6.4725 11.8425 4.875 9 4.875C6.1575 4.875 3.6225 6.4725 2.385 9C3.6225 11.5275 6.1575 13.125 9 13.125C11.8425 13.125 14.3775 11.5275 15.615 9ZM9 7.125C10.035 7.125 10.875 7.965 10.875 9C10.875 10.035 10.035 10.875 9 10.875C7.965 10.875 7.125 10.035 7.125 9C7.125 7.965 7.965 7.125 9 7.125ZM5.625 9C5.625 7.14 7.14 5.625 9 5.625C10.86 5.625 12.375 7.14 12.375 9C12.375 10.86 10.86 12.375 9 12.375C7.14 12.375 5.625 10.86 5.625 9Z" fill="#525252"/>
<path d="M27.7769 14V12.684H30.5209V5.376H30.4089L28.1409 7.798L27.1749 6.93L29.6669 4.228H32.0749V12.684H34.4549V14H27.7769ZM36.9695 14.168C36.6241 14.168 36.3675 14.0793 36.1995 13.902C36.0315 13.7153 35.9475 13.4867 35.9475 13.216V13.006C35.9475 12.7353 36.0315 12.5113 36.1995 12.334C36.3675 12.1473 36.6241 12.054 36.9695 12.054C37.3148 12.054 37.5715 12.1473 37.7395 12.334C37.9075 12.5113 37.9915 12.7353 37.9915 13.006V13.216C37.9915 13.4867 37.9075 13.7153 37.7395 13.902C37.5715 14.0793 37.3148 14.168 36.9695 14.168ZM44.026 14V12.096H39.49V10.738L43.452 4.228H45.524V10.85H46.854V12.096H45.524V14H44.026ZM40.834 10.85H44.026V5.67H43.928L40.834 10.85ZM48.4865 3.64H50.0125V9.996H50.0825L51.0905 8.694L52.8405 6.72H54.6185L52.0705 9.534L54.9265 14H53.1065L51.0205 10.528L50.0125 11.62V14H48.4865V3.64ZM61.0334 14L58.5554 6.72H60.0674L61.1734 10.038L61.9154 12.586H61.9994L62.7414 10.038L63.8754 6.72H65.3314L62.8254 14H61.0334ZM67.3854 5.418C67.0681 5.418 66.8348 5.34333 66.6854 5.194C66.5454 5.04467 66.4754 4.85333 66.4754 4.62V4.382C66.4754 4.14867 66.5454 3.95733 66.6854 3.808C66.8348 3.65867 67.0681 3.584 67.3854 3.584C67.7028 3.584 67.9314 3.65867 68.0714 3.808C68.2114 3.95733 68.2814 4.14867 68.2814 4.382V4.62C68.2814 4.85333 68.2114 5.04467 68.0714 5.194C67.9314 5.34333 67.7028 5.418 67.3854 5.418ZM66.6154 6.72H68.1414V14H66.6154V6.72ZM73.1765 14.168C72.6538 14.168 72.1872 14.0793 71.7765 13.902C71.3658 13.7247 71.0158 13.4727 70.7265 13.146C70.4372 12.81 70.2132 12.4087 70.0545 11.942C69.9052 11.466 69.8305 10.9387 69.8305 10.36C69.8305 9.78133 69.9052 9.25867 70.0545 8.792C70.2132 8.316 70.4372 7.91467 70.7265 7.588C71.0158 7.252 71.3658 6.99533 71.7765 6.818C72.1872 6.64067 72.6538 6.552 73.1765 6.552C73.7085 6.552 74.1752 6.64533 74.5765 6.832C74.9872 7.01867 75.3278 7.28 75.5985 7.616C75.8692 7.94267 76.0698 8.32533 76.2005 8.764C76.3405 9.20267 76.4105 9.674 76.4105 10.178V10.752H71.4125V10.99C71.4125 11.55 71.5758 12.012 71.9025 12.376C72.2385 12.7307 72.7145 12.908 73.3305 12.908C73.7785 12.908 74.1565 12.81 74.4645 12.614C74.7725 12.418 75.0338 12.152 75.2485 11.816L76.1445 12.698C75.8738 13.146 75.4818 13.5053 74.9685 13.776C74.4552 14.0373 73.8578 14.168 73.1765 14.168ZM73.1765 7.742C72.9152 7.742 72.6725 7.78867 72.4485 7.882C72.2338 7.97533 72.0472 8.106 71.8885 8.274C71.7392 8.442 71.6225 8.64267 71.5385 8.876C71.4545 9.10933 71.4125 9.366 71.4125 9.646V9.744H74.8005V9.604C74.8005 9.044 74.6558 8.596 74.3665 8.26C74.0772 7.91467 73.6805 7.742 73.1765 7.742ZM77.3035 6.72H78.7875L79.5295 9.772L80.1875 12.53H80.2295L80.9855 9.772L81.8675 6.72H83.2395L84.1355 9.772L84.9055 12.53H84.9475L85.5915 9.772L86.3475 6.72H87.7615L85.8015 14H84.0795L83.1275 10.682L82.5395 8.638H82.5115L81.9375 10.682L80.9715 14H79.2915L77.3035 6.72ZM91.484 14.168C90.7934 14.168 90.2147 14.0467 89.748 13.804C89.2814 13.5613 88.8754 13.2253 88.53 12.796L89.51 11.9C89.7807 12.2267 90.0794 12.4833 90.406 12.67C90.742 12.8473 91.1294 12.936 91.568 12.936C92.016 12.936 92.3474 12.852 92.562 12.684C92.786 12.5067 92.898 12.264 92.898 11.956C92.898 11.7227 92.8187 11.5267 92.66 11.368C92.5107 11.2 92.2447 11.0927 91.862 11.046L91.19 10.962C90.4434 10.8687 89.8554 10.654 89.426 10.318C89.006 9.97267 88.796 9.464 88.796 8.792C88.796 8.43733 88.8614 8.12467 88.992 7.854C89.1227 7.574 89.3047 7.34067 89.538 7.154C89.7807 6.958 90.0654 6.80867 90.392 6.706C90.728 6.60333 91.0967 6.552 91.498 6.552C92.1514 6.552 92.6834 6.65467 93.094 6.86C93.514 7.06533 93.8874 7.35 94.214 7.714L93.276 8.61C93.0894 8.386 92.842 8.19467 92.534 8.036C92.2354 7.868 91.89 7.784 91.498 7.784C91.078 7.784 90.7654 7.868 90.56 8.036C90.364 8.204 90.266 8.42333 90.266 8.694C90.266 8.974 90.3547 9.184 90.532 9.324C90.7094 9.464 90.994 9.56667 91.386 9.632L92.058 9.716C92.8607 9.83733 93.444 10.0753 93.808 10.43C94.1814 10.7753 94.368 11.242 94.368 11.83C94.368 12.1847 94.298 12.5067 94.158 12.796C94.0274 13.076 93.836 13.3187 93.584 13.524C93.332 13.7293 93.0287 13.888 92.674 14C92.3194 14.112 91.9227 14.168 91.484 14.168Z" fill="#525252"/>
</svg>

<svg xmlns="http://www.w3.org/2000/svg" width="95" height="18" fill="none"><path fill="#525252" fill-rule="evenodd" d="M.75 9C2.047 5.707 5.25 3.375 9 3.375S15.953 5.707 17.25 9c-1.297 3.293-4.5 5.625-8.25 5.625S2.047 12.293.75 9Zm14.865 0A7.328 7.328 0 0 0 9 4.875 7.328 7.328 0 0 0 2.385 9 7.328 7.328 0 0 0 9 13.125 7.328 7.328 0 0 0 15.615 9ZM9 7.125a1.876 1.876 0 1 1-.001 3.751A1.876 1.876 0 0 1 9 7.125ZM5.625 9A3.38 3.38 0 0 1 9 5.625 3.38 3.38 0 0 1 12.375 9 3.38 3.38 0 0 1 9 12.375 3.38 3.38 0 0 1 5.625 9Z" clip-rule="evenodd"/><path fill="#525252" d="M27.777 14v-1.316h2.744V5.376h-.112L28.14 7.798l-.966-.868 2.492-2.702h2.408v8.456h2.38V14h-6.678Zm9.192.168c-.345 0-.602-.089-.77-.266a.988.988 0 0 1-.252-.686v-.21c0-.27.084-.495.252-.672.169-.187.425-.28.77-.28.346 0 .602.093.77.28a.938.938 0 0 1 .253.672v.21c0 .27-.084.5-.252.686-.169.177-.425.266-.77.266ZM44.026 14v-1.904H39.49v-1.358l3.962-6.51h2.072v6.622h1.33v1.246h-1.33V14h-1.498Zm-3.192-3.15h3.192V5.67h-.098l-3.094 5.18Zm7.652-7.21h1.527v6.356h.07l1.008-1.302 1.75-1.974h1.777l-2.547 2.814L54.925 14h-1.82l-2.086-3.472-1.008 1.092V14h-1.526V3.64ZM61.034 14l-2.478-7.28h1.512l1.106 3.318.742 2.548H62l.742-2.548 1.134-3.318h1.456L62.825 14h-1.792Zm6.352-8.582c-.317 0-.55-.075-.7-.224a.806.806 0 0 1-.21-.574v-.238c0-.233.07-.425.21-.574.15-.15.383-.224.7-.224.318 0 .546.075.686.224.14.15.21.34.21.574v.238c0 .233-.07.425-.21.574-.14.15-.368.224-.686.224Zm-.77 1.302h1.526V14h-1.526V6.72Zm6.562 7.448a3.5 3.5 0 0 1-1.4-.266 2.94 2.94 0 0 1-1.05-.756 3.596 3.596 0 0 1-.672-1.204 5.269 5.269 0 0 1-.225-1.582c0-.579.075-1.101.225-1.568.158-.476.382-.877.671-1.204.29-.336.64-.593 1.05-.77a3.5 3.5 0 0 1 1.4-.266c.532 0 1 .093 1.4.28.411.187.752.448 1.023.784.27.327.47.71.602 1.148.14.439.21.91.21 1.414v.574h-4.999v.238c0 .56.164 1.022.49 1.386.337.355.813.532 1.428.532.448 0 .826-.098 1.135-.294.307-.196.569-.462.784-.798l.895.882c-.27.448-.662.807-1.175 1.078-.514.261-1.111.392-1.792.392Zm0-6.426c-.262 0-.505.047-.729.14a1.687 1.687 0 0 0-.56.392c-.149.168-.266.369-.35.602-.084.233-.126.49-.126.77v.098H74.8v-.14c0-.56-.144-1.008-.433-1.344-.29-.345-.687-.518-1.19-.518Zm4.126-1.022h1.484l.742 3.052.659 2.758h.041l.757-2.758.882-3.052h1.372l.895 3.052.77 2.758h.043l.644-2.758.755-3.052h1.415L85.802 14h-1.723l-.951-3.318-.588-2.044h-.029l-.573 2.044L80.972 14h-1.68l-1.989-7.28Zm14.181 7.448c-.69 0-1.27-.121-1.736-.364a3.81 3.81 0 0 1-1.218-1.008l.98-.896c.27.327.57.583.896.77.336.177.723.266 1.162.266.448 0 .78-.084.994-.252.224-.177.336-.42.336-.728 0-.233-.08-.43-.238-.588-.15-.168-.415-.275-.798-.322l-.672-.084c-.747-.093-1.335-.308-1.764-.644-.42-.345-.63-.854-.63-1.526 0-.355.065-.667.196-.938.13-.28.313-.513.546-.7a2.57 2.57 0 0 1 .854-.448 3.771 3.771 0 0 1 1.106-.154c.653 0 1.185.103 1.596.308.42.205.793.49 1.12.854l-.938.896a2.348 2.348 0 0 0-.742-.574 2.077 2.077 0 0 0-1.036-.252c-.42 0-.733.084-.938.252a.825.825 0 0 0-.294.658c0 .28.089.49.266.63.177.14.462.243.854.308l.672.084c.803.121 1.386.36 1.75.714.373.345.56.812.56 1.4 0 .355-.07.677-.21.966a2.05 2.05 0 0 1-.574.728 2.72 2.72 0 0 1-.91.476 3.941 3.941 0 0 1-1.19.168Z"/></svg>
